svgs/sharp-regular/truck-moving.svg

<svg xmlns="http://www.w3.org/2000/svg" viewBox="0 0 640 512"><!--! Font Awesome Pro 6.6.0 by @fontawesome - https://fontawesome.com License - https://fontawesome.com/license (Commercial License) Copyright 2024 Fonticons, Inc. --><path d="M48 80l0 246.7c9.8-4.3 20.6-6.7 32-6.7c26.2 0 49.4 12.6 64 32c14.6-19.4 37.8-32 64-32s49.4 12.6 64 32l160 0 0-272L48 80zM208 480c-26.2 0-49.4-12.6-64-32c-14.6 19.4-37.8 32-64 32c-44.2 0-80-35.8-80-80l0-48 0-48L0 80 0 32l48 0 384 0 48 0 0 48 0 64 64 0 11.4 0 7.2 8.8 72 88 5.4 6.6 0 8.6 0 32 0 112-32 0c0 44.2-35.8 80-80 80s-80-35.8-80-80l-8 0-8 0-144 0c0 44.2-35.8 80-80 80zM532.6 192L480 192l0 64 105 0-52.4-64zM528 432a32 32 0 1 0 0-64 32 32 0 1 0 0 64zM240 400a32 32 0 1 0 -64 0 32 32 0 1 0 64 0zM80 432a32 32 0 1 0 0-64 32 32 0 1 0 0 64z"/></svg>

<svg xmlns="http://www.w3.org/2000/svg" viewBox="0 0 640 512"><!--! Font Awesome Pro 6.4.2 by @fontawesome - https://fontawesome.com License - https://fontawesome.com/license (Commercial License) Copyright 2023 Fonticons, Inc. --><path d="M48 80V326.7c9.8-4.3 20.6-6.7 32-6.7c26.2 0 49.4 12.6 64 32c14.6-19.4 37.8-32 64-32s49.4 12.6 64 32H432V80H48zM208 480c-26.2 0-49.4-12.6-64-32c-14.6 19.4-37.8 32-64 32c-44.2 0-80-35.8-80-80V352 304 80 32H48 432h48V80v64h64 11.4l7.2 8.8 72 88 5.4 6.6V256v32V400H608c0 44.2-35.8 80-80 80s-80-35.8-80-80h-8-8H288c0 44.2-35.8 80-80 80zM532.6 192H480v64H585l-52.4-64zM528 432a32 32 0 1 0 0-64 32 32 0 1 0 0 64zM240 400a32 32 0 1 0 -64 0 32 32 0 1 0 64 0zM80 432a32 32 0 1 0 0-64 32 32 0 1 0 0 64z"/></svg>
